!!!OTL: 1929. Jn dulci jubilo. / [Halblateinisches Weihnachtslied. 14. Jahrh.]
!!!ODT: 16 Jhrh.
!!!ARE: Europa, Mitteleuropa, Deutschland
!!!SCT: E1929
!!!TXL: @@DE, @@LAT
!!!YEM: Copyright 1995, estate of Helmut Schaffrath.
**kern	**text
*ICvox	*
*M3/4	*
*k[b-]	*
*F:	*
=1	=1
!LO:TX:a:t=Mel. 1529 u. 1535 in Klug's Geſangb. M. Vehe 1537.	!
!LO:TX:a:t=Protestantische Fassung im 16. Jahrh. Lobgesang auf den heiligen Christtag.	!
2r	.
{4f	Jn
=2	=2
2f	dul-
4f	-ei
=3	=3
2a	iu-
4b-	-bi-
=4	=4
(2cc	-lo!
4dd	.
=5	=5
2cc)}	.
{4cc	Nu
=6	=6
2f	ſin-
4f	-get
=7	=7
2a	und
4b-	ſeid
=8	=8
(2cc	froh!
4dd	.
=9	=9
2.cc)}	.
=10	=10
{2cc	Un-
4dd	-ſers
=11	=11
2cc	Her-
4b-	-ʒens
=12	=12
2.a	Won-
=13	=13
2f}	-ne
{4f	leit
=14	=14
2g	in
4g	prae-
=15	=15
2a	-se-
4g	-pi-
=16	=16
(2f	-o
4g	.
=17	=17
2a)}	.
{4a	und
=18	=18
2cc	leuch-
4dd	-tet
=19	=19
2cc	als
4b-	die
=20	=20
2.a	Son-
=21	=21
2f}	-ne
{4f	ma-
=22	=22
2g	-tris
4g	in
=23	=23
2a	gre-
4g	-mi-
=24	=24
(2f	-o
4g	.
=25	=25
2.a)}	.
=26	=26
{2d	Al-
4d	-pha
=27	=27
2e	es
4e	et
=28	=28
(<2.f	O
=29	=29
2.cc)}	.
=30	=30
{2a	Al-
4a	-pha
=31	=31
2g	es
4g	et
=32	=32
2.f;}	O.
==	==
!!!AGN: geistlich, Fest - Lied, Weihnachten
!!!ONB: ESAC (Essen Associative Code) Database: ERK3
!!!AMT: simple triple
!!!AIN: vox
!!!EED: Helmut Schaffrath
!!!EEV: 1.0
!!!GTL: Geistliche Lieder. 1. Christliche Festlieder: a) Weihnachtskreis (Advent, Weihnachten, Neujahr und Dreikoenigstag).
!!!URL-scan: https://rosdok.uni-rostock.de/mcrviewer/recordIdentifier/rosdok_ppn745177999/iview2/phys_0641.iview2?x=188.9681574111819&y=1012.3517187796533&scale=0.7014306698522895&rotation=0&layout=singlePageLayout
!!!ENC: Anna Maria Matuszewska
!!!EEV: 2025/09/01
*-	*-
